s.boot;
s.scope;
// caosPercLib default timbers
//Kick
~k = CaosKick.new
play{CaosKick.ar}//class
play{~k.ar}//instance
//Kick 2
s.boot;
~k2 = CaosKick2.new
play{CaosKick2.ar}//class
play{~k2.ar}//instance